assets/img/icons/duotone-icons/Home/Home-heart.svg

<?xml version="1.0" encoding="UTF-8"?>
<svg width="24px" height="24px" viewBox="0 0 24 24" version="1.1" xmlns="http://www.w3.org/2000/svg" xmlns:xlink="http://www.w3.org/1999/xlink">
    <!-- Generator: Sketch 52.2 (67145) - http://www.bohemiancoding.com/sketch -->
    <title>Stockholm-icons / Home / Home-heart</title>
    <desc>Created with Sketch.</desc>
    <g id="Stockholm-icons-/-Home-/-Home-heart" stroke="none" stroke-width="1" fill="none" fill-rule="evenodd">
        <rect id="bound" x="0" y="0" width="24" height="24"></rect>
        <path d="M3.95709826,8.41510662 L11.47855,3.81866389 C11.7986624,3.62303967 12.2013376,3.62303967 12.52145,3.81866389 L20.0429,8.41510557 C20.6374094,8.77841684 21,9.42493654 21,10.1216692 L21,19.0000673 C21,20.1046368 20.1045695,21.0000673 19,21.0000673 L4.99998155,21.0000704 C3.89541205,21.0000704 2.99998155,20.1046399 2.99998155,19.0000704 C2.99998155,19.0000693 2.99998155,19.0000683 2.99998155,19.0000673 L2.99999828,10.1216672 C2.99999935,9.42493561 3.36258984,8.77841732 3.95709826,8.41510662 Z" id="Combined-Shape" fill="#335EEA" opacity="0.3"></path>
        <path d="M13.8,12 C13.1562,12 12.4033,12.7298529 12,13.2 C11.5967,12.7298529 10.8438,12 10.2,12 C9.0604,12 8.4,12.8888719 8.4,14.0201635 C8.4,15.2733878 9.6,16.6 12,18 C14.4,16.6 15.6,15.3 15.6,14.1 C15.6,12.9687084 14.9396,12 13.8,12 Z" id="Shape" fill="#335EEA" opacity="0.3"></path>
    </g>
</svg>

<svg width="24" height="24" viewBox="0 0 24 24" xmlns="http://www.w3.org/2000/svg"><g fill="none" fill-rule="evenodd"><path d="M0 0h24v24H0z"/><path d="M3.957 8.415L11.48 3.82a1 1 0 011.042 0l7.522 4.596A2 2 0 0121 10.122V19a2 2 0 01-2 2H5a2 2 0 01-2-2v-8.878a2 2 0 01.957-1.707z" fill="#335EEA" opacity=".3"/><path d="M13.8 12c-.644 0-1.397.73-1.8 1.2-.403-.47-1.156-1.2-1.8-1.2-1.14 0-1.8.889-1.8 2.02 0 1.253 1.2 2.58 3.6 3.98 2.4-1.4 3.6-2.7 3.6-3.9 0-1.131-.66-2.1-1.8-2.1z" fill="#335EEA" opacity=".3"/></g></svg>
